X: 21
T:Gundercuff.Jig
C:Bill Quern 
M:6/8
R:Jig
L:1/8
K:D
"D"FAA "D6"BAA|"C"=cAA "Am7"BAG|"D"FGA "D6"B=cd|"C"e=fe "Am7"d=cA|
"D"FAA "D6"BAA|"C"=cAA "Am7"BAG|"D"FGA "D6"B=cd|"C"e=fe "D"d3:|
"D"fed edc|d3A2B|"C"=cBA BAG|"Am"A2F"G"D2E|
"F"=F2F3A|=cBA cBA|"G"A2dd2c|"D"d3d3:|
